DEF 09_robCode 
PTP $POS_ACT
LIN {X 1000.000000, Y 0.000000, Z 800.000000, A 0.000000, B 180.000000, C 0.000000}
LIN {X 1086.100000, Y -176.400000, Z 800.000000, A 0.000000, B 180.000000, C 0.000000}
LIN {X 1086.100000, Y -176.400000, Z 750.000000, A 0.000000, B 180.000000, C 0.000000}
LIN {X 1101.500000, Y -128.100000, Z 750.000000, A 0.000000, B 180.000000, C 0.000000}
LIN {X 1120.400000, Y -103.600000, Z 750.000000, A 0.000000, B 180.000000, C 0.000000}
LIN {X 1141.400000, Y -95.900000, Z 750.000000, A 0.000000, B 180.000000, C 0.000000}
LIN {X 1172.900000, Y -99.400000, Z 750.000000, A 0.000000, B 180.000000, C 0.000000}
LIN {X 1193.900000, Y -124.600000, Z 750.000000, A 0.000000, B 180.000000, C 0.000000}
LIN {X 1204.400000, Y -205.100000, Z 750.000000, A 0.000000, B 180.000000, C 0.000000}
LIN {X 1215.600000, Y -231.000000, Z 750.000000, A 0.000000, B 180.000000, C 0.000000}
LIN {X 1232.400000, Y -251.300000, Z 750.000000, A 0.000000, B 180.000000, C 0.000000}
LIN {X 1259.000000, Y -265.300000, Z 750.000000, A 0.000000, B 180.000000, C 0.000000}
LIN {X 1298.200000, Y -275.100000, Z 750.000000, A 0.000000, B 180.000000, C 0.000000}
LIN {X 1340.900000, Y -274.400000, Z 750.000000, A 0.000000, B 180.000000, C 0.000000}
LIN {X 1373.100000, Y -262.500000, Z 750.000000, A 0.000000, B 180.000000, C 0.000000}
LIN {X 1459.900000, Y -185.500000, Z 750.000000, A 0.000000, B 180.000000, C 0.000000}
LIN {X 1471.100000, Y -168.000000, Z 750.000000, A 0.000000, B 180.000000, C 0.000000}
LIN {X 1471.800000, Y -149.100000, Z 750.000000, A 0.000000, B 180.000000, C 0.000000}
LIN {X 1455.000000, Y -128.800000, Z 750.000000, A 0.000000, B 180.000000, C 0.000000}
LIN {X 1418.600000, Y -110.600000, Z 750.000000, A 0.000000, B 180.000000, C 0.000000}
LIN {X 1398.300000, Y -109.200000, Z 750.000000, A 0.000000, B 180.000000, C 0.000000}
LIN {X 1359.100000, Y -121.100000, Z 750.000000, A 0.000000, B 180.000000, C 0.000000}
LIN {X 1322.700000, Y -114.800000, Z 750.000000, A 0.000000, B 180.000000, C 0.000000}
LIN {X 1301.700000, Y -96.600000, Z 750.000000, A 0.000000, B 180.000000, C 0.000000}
LIN {X 1294.000000, Y -77.700000, Z 750.000000, A 0.000000, B 180.000000, C 0.000000}
LIN {X 1294.000000, Y -77.700000, Z 800.000000, A 0.000000, B 180.000000, C 0.000000}
LIN {X 1523.600000, Y -65.100000, Z 800.000000, A 0.000000, B 180.000000, C 0.000000}
LIN {X 1523.600000, Y -65.100000, Z 750.000000, A 0.000000, B 180.000000, C 0.000000}
LIN {X 1628.600000, Y -67.200000, Z 750.000000, A 0.000000, B 180.000000, C 0.000000}
LIN {X 1672.000000, Y -74.900000, Z 750.000000, A 0.000000, B 180.000000, C 0.000000}
LIN {X 1714.700000, Y -90.300000, Z 750.000000, A 0.000000, B 180.000000, C 0.000000}
LIN {X 1741.300000, Y -112.700000, Z 750.000000, A 0.000000, B 180.000000, C 0.000000}
LIN {X 1748.300000, Y -130.200000, Z 750.000000, A 0.000000, B 180.000000, C 0.000000}
LIN {X 1743.400000, Y -162.400000, Z 750.000000, A 0.000000, B 180.000000, C 0.000000}
LIN {X 1732.200000, Y -182.000000, Z 750.000000, A 0.000000, B 180.000000, C 0.000000}
LIN {X 1710.500000, Y -200.200000, Z 750.000000, A 0.000000, B 180.000000, C 0.000000}
LIN {X 1695.100000, Y -205.800000, Z 750.000000, A 0.000000, B 180.000000, C 0.000000}
LIN {X 1655.900000, Y -205.100000, Z 750.000000, A 0.000000, B 180.000000, C 0.000000}
LIN {X 1606.900000, Y -193.200000, Z 750.000000, A 0.000000, B 180.000000, C 0.000000}
LIN {X 1580.300000, Y -170.800000, Z 750.000000, A 0.000000, B 180.000000, C 0.000000}
LIN {X 1581.700000, Y -153.300000, Z 750.000000, A 0.000000, B 180.000000, C 0.000000}
LIN {X 1590.100000, Y -142.800000, Z 750.000000, A 0.000000, B 180.000000, C 0.000000}
LIN {X 1625.800000, Y -127.400000, Z 750.000000, A 0.000000, B 180.000000, C 0.000000}
LIN {X 1665.000000, Y -126.000000, Z 750.000000, A 0.000000, B 180.000000, C 0.000000}
LIN {X 1690.900000, Y -131.600000, Z 750.000000, A 0.000000, B 180.000000, C 0.000000}
LIN {X 1690.900000, Y -131.600000, Z 800.000000, A 0.000000, B 180.000000, C 0.000000}
LIN {X 1000.000000, Y 0.000000, Z 800.000000, A 0.000000, B 180.000000, C 0.000000}
END